raw/spot/spot-no-favorites.svg

<svg width="80" height="80" viewBox="0 0 80 80" fill="none" xmlns="http://www.w3.org/2000/svg">
<path opacity="0.01" d="M80 0H0V80H80V0Z" fill="#D8D8D8"/>
<path d="M12 15C12 10.5817 15.5817 7 20 7H59C63.4183 7 67 10.5817 67 15V71H20C15.5817 71 12 67.4183 12 63V15Z" fill="#E3E7F5"/>
<path fill-rule="evenodd" clip-rule="evenodd" d="M46.6515 41.944C46.2436 41.7295 45.7564 41.7295 45.3485 41.944L40.2819 44.6077C39.2548 45.1476 38.0544 44.2755 38.2505 43.1318L39.2182 37.49C39.2961 37.0359 39.1455 36.5725 38.8155 36.2508L34.7165 32.2553C33.8856 31.4453 34.3441 30.0342 35.4924 29.8673L41.1571 29.0442C41.6131 28.9779 42.0073 28.6915 42.2112 28.2783L44.7446 23.1452C45.2581 22.1047 46.7419 22.1047 47.2554 23.1452L49.7888 28.2783C49.9927 28.6915 50.3869 28.9779 50.8429 29.0442L56.5076 29.8673C57.6559 30.0342 58.1144 31.4453 57.2835 32.2553L53.1845 36.2508C52.8545 36.5725 52.7039 37.0359 52.7818 37.49L53.7495 43.1318C53.9456 44.2755 52.7452 45.1476 51.7181 44.6077L46.6515 41.944Z" fill="#D3D8EA"/>
<path d="M66.1522 57H20.5996C16.4575 57 13.0996 60.3579 13.0996 64.5C13.0996 68.6421 16.4575 72 20.5996 72H65.8" stroke="#D3D8EA" stroke-width="2.4" stroke-linecap="square"/>
<path d="M23 8V57" stroke="#D3D8EA" stroke-width="2.4" stroke-linecap="square"/>
<path d="M27 64.5H64" stroke="#D3D8EA" stroke-width="2.4" stroke-linecap="square"/>
<path d="M58.8 62.7016C58.8 61.0999 57.5016 59.8016 55.9 59.8016C54.2984 59.8016 53 61.0999 53 62.7016C53 64.3032 54.2984 65.6016 55.9 65.6016C57.5016 65.6016 58.8 64.3032 58.8 62.7016Z" fill="#0066FF"/>
<path d="M58.8 53.2992C58.8 51.6976 57.5016 50.3992 55.9 50.3992C54.2984 50.3992 53 51.6976 53 53.2992C53 54.9008 54.2984 56.1992 55.9 56.1992C57.5016 56.1992 58.8 54.9008 58.8 53.2992Z" fill="#0066FF"/>
<path d="M71.1723 68.8555C71.1723 68.8555 65.5723 64.1055 65.5723 57.659C65.5723 51.2126 71.1723 47.1412 71.1723 47.1412" stroke="#0066FF" stroke-width="3.5"/>
</svg>

<svg width="80" height="80" viewBox="0 0 80 80" fill="none" xmlns="http://www.w3.org/2000/svg"><path opacity=".01" d="M80 0H0v80h80V0z" fill="#D8D8D8"/><path d="M12 15a8 8 0 0 1 8-8h39a8 8 0 0 1 8 8v56H20a8 8 0 0 1-8-8V15z" fill="#E3E7F5"/><path fill-rule="evenodd" clip-rule="evenodd" d="M46.651 41.944a1.4 1.4 0 0 0-1.303 0l-5.066 2.664c-1.027.54-2.228-.332-2.031-1.476l.967-5.642a1.4 1.4 0 0 0-.403-1.24l-4.098-3.995c-.831-.81-.373-2.22.775-2.388l5.665-.823a1.4 1.4 0 0 0 1.054-.766l2.534-5.133c.513-1.04 1.997-1.04 2.51 0l2.534 5.133a1.4 1.4 0 0 0 1.054.766l5.665.823c1.148.167 1.606 1.578.775 2.388l-4.099 3.996a1.4 1.4 0 0 0-.402 1.239l.968 5.642c.196 1.144-1.005 2.016-2.032 1.476l-5.067-2.664z" fill="#D3D8EA"/><path d="M66.152 57H20.6a7.5 7.5 0 0 0 0 15h45.2M23 8v49M27 64.5h37" stroke="#D3D8EA" stroke-width="2.4" stroke-linecap="square"/><path d="M58.8 62.702a2.9 2.9 0 1 0-5.8 0 2.9 2.9 0 0 0 5.8 0zM58.8 53.3a2.9 2.9 0 1 0-5.8 0 2.9 2.9 0 0 0 5.8 0z" fill="#06F"/><path d="M71.172 68.856s-5.6-4.75-5.6-11.197c0-6.446 5.6-10.518 5.6-10.518" stroke="#06F" stroke-width="3.5"/></svg>
